src/assets/icons/regenerated.svg

<svg width="24" height="24" viewBox="0 0 24 24" fill="none" xmlns="http://www.w3.org/2000/svg">
<path d="M12 5C13.3581 4.99975 14.6869 5.39458 15.8246 6.13635C16.9622 6.87812 17.8595 7.93481 18.4071 9.17762C18.9546 10.4204 19.1289 11.7957 18.9085 13.1358C18.6881 14.4759 18.0827 15.723 17.166 16.725" stroke="#314158" stroke-width="1.5" stroke-linecap="round" stroke-linejoin="round"/>
<path d="M11.6114 9.25162C11.7745 8.9362 12.2255 8.9362 12.3886 9.25162L13.1289 10.6834C13.1705 10.7639 13.2361 10.8295 13.3166 10.8711L14.7484 11.6114C15.0638 11.7745 15.0638 12.2255 14.7484 12.3886L13.3166 13.1289C13.2361 13.1705 13.1705 13.2361 13.1289 13.3166L12.3886 14.7484C12.2255 15.0638 11.7745 15.0638 11.6114 14.7484L10.8711 13.3166C10.8295 13.2361 10.7639 13.1705 10.6834 13.1289L9.25162 12.3886C8.93621 12.2255 8.93621 11.7745 9.25162 11.6114L10.6834 10.8711C10.7639 10.8295 10.8295 10.7639 10.8711 10.6834L11.6114 9.25162Z" fill="#314158"/>
<path d="M5.35 9.8125C5.12695 10.4906 5.00892 11.1987 5 11.9125" stroke="#314158" stroke-width="1.5" stroke-linecap="round" stroke-linejoin="round"/>
<path d="M5.58106 14.8C5.97411 15.7043 6.55376 16.5153 7.28205 17.18" stroke="#314158" stroke-width="1.5" stroke-linecap="round" stroke-linejoin="round"/>
<path d="M6.84506 7.2645C7.04039 7.05186 7.24869 6.85151 7.46876 6.6646" stroke="#314158" stroke-width="1.5" stroke-linecap="round" stroke-linejoin="round"/>
<path d="M9.65079 18.594C11.3964 19.2158 13.3173 19.1202 14.9925 18.328" stroke="#314158" stroke-width="1.5" stroke-linecap="round" stroke-linejoin="round"/>
</svg>

<svg fill="none" viewBox="0 0 24 24"><path stroke="currentColor" stroke-linecap="round" stroke-linejoin="round" stroke-width="1.5" d="M12 5a7 7 0 0 1 5.166 11.725"/><path fill="currentColor" d="M11.611 9.252a.437.437 0 0 1 .778 0l.74 1.431c.042.08.107.146.188.188l1.431.74a.437.437 0 0 1 0 .778l-1.431.74a.44.44 0 0 0-.188.188l-.74 1.431a.437.437 0 0 1-.778 0l-.74-1.431a.44.44 0 0 0-.188-.188l-1.431-.74a.437.437 0 0 1 0-.778l1.431-.74a.44.44 0 0 0 .188-.188z"/><path stroke="currentColor" stroke-linecap="round" stroke-linejoin="round" stroke-width="1.5" d="M5.35 9.813a7 7 0 0 0-.35 2.1M5.581 14.8a7 7 0 0 0 1.701 2.38M6.845 7.265a7 7 0 0 1 .624-.6M9.65 18.594a7 7 0 0 0 5.342-.266"/></svg>
